assets/svg/icon_field_nickname.svg

<svg width="25" height="24" viewBox="0 0 25 24" fill="none" xmlns="http://www.w3.org/2000/svg">
<path d="M20.3258 14.1508V12.0508C20.3258 9.95078 19.5258 7.95078 18.0258 6.45078C16.5258 4.95078 14.5258 4.05078 12.4258 4.05078C10.2258 4.05078 8.22578 4.95078 6.82578 6.45078C5.32578 7.85078 4.42578 9.85078 4.42578 12.0508C4.42578 14.1508 5.22578 16.1508 6.72578 17.6508C8.22578 19.1508 10.2258 19.9508 12.4258 19.9508C12.6258 19.9508 12.7258 19.8508 12.8258 19.7508C12.9258 19.6508 13.0258 19.4508 13.0258 19.3508C13.0258 19.1508 12.9258 19.0508 12.8258 18.9508C12.7258 18.8508 12.5258 18.7508 12.4258 18.7508C11.1258 18.7508 9.82578 18.3508 8.72578 17.6508C7.62578 16.9508 6.72578 15.8508 6.22578 14.6508C5.72578 13.4508 5.52578 12.0508 5.82578 10.7508C6.12578 9.45078 6.72578 8.25078 7.62578 7.35078C8.52578 6.45078 9.72578 5.75078 11.0258 5.55078C12.3258 5.35078 13.7258 5.45078 14.9258 5.95078C16.1258 6.45078 17.2258 7.35078 17.9258 8.45078C18.6258 9.55078 19.0258 10.8508 19.0258 12.1508V14.2508C19.0258 14.6508 18.8258 15.0508 18.6258 15.3508C18.3258 15.6508 17.9258 15.7508 17.5258 15.7508C17.1258 15.7508 16.7258 15.5508 16.4258 15.3508C16.1258 15.0508 16.0258 14.6508 16.0258 14.2508V8.85078C16.0258 8.65078 15.9258 8.55078 15.8258 8.45078C15.7258 8.35078 15.5258 8.25078 15.4258 8.25078C15.2258 8.25078 15.1258 8.35078 15.0258 8.45078C14.9258 8.55078 14.8258 8.75078 14.8258 8.85078V9.25078L14.6258 9.05078C14.0258 8.55078 13.2258 8.25078 12.4258 8.25078C11.8258 8.25078 11.2258 8.35078 10.7258 8.65078C10.1258 8.95078 9.62578 9.35078 9.32578 9.85078C8.92578 10.3508 8.72578 10.9508 8.62578 11.5508C8.52578 12.1508 8.62578 12.7508 8.82578 13.3508C9.02578 13.9508 9.42578 14.4508 9.82578 14.8508C10.3258 15.2508 10.8258 15.5508 11.4258 15.6508C12.0258 15.7508 12.6258 15.7508 13.2258 15.6508C13.8258 15.5508 14.3258 15.2508 14.8258 14.8508L14.9258 14.7508L15.0258 14.9508C15.2258 15.5508 15.6258 16.1508 16.1258 16.4508C16.6258 16.7508 17.3258 16.9508 17.9258 16.8508C18.5258 16.7508 19.1258 16.4508 19.5258 15.9508C20.1258 15.3508 20.3258 14.7508 20.3258 14.1508ZM14.2258 13.8508C13.7258 14.3508 13.1258 14.5508 12.4258 14.5508C11.9258 14.5508 11.4258 14.4508 11.0258 14.1508C10.5258 13.8508 10.2258 13.4508 10.0258 12.9508C9.82578 12.4508 9.82578 11.9508 9.92578 11.4508C10.0258 10.9508 10.2258 10.5508 10.6258 10.1508C11.0258 9.75078 11.4258 9.55078 11.9258 9.45078C12.4258 9.35078 12.9258 9.45078 13.4258 9.55078C13.9258 9.75078 14.3258 10.0508 14.5258 10.4508C14.8258 10.8508 14.9258 11.3508 14.9258 11.8508C14.9258 12.6508 14.6258 13.3508 14.2258 13.8508Z" fill="#0166FF"/>
</svg>

<svg xmlns="http://www.w3.org/2000/svg" width="25" height="24" fill="none"><path fill="#0166FF" d="M20.326 14.15v-2.1c0-2.1-.8-4.1-2.3-5.6s-3.5-2.4-5.6-2.4c-2.2 0-4.2.9-5.6 2.4-1.5 1.4-2.4 3.4-2.4 5.6 0 2.1.8 4.1 2.3 5.6s3.5 2.3 5.7 2.3c.2 0 .3-.1.4-.2s.2-.3.2-.4c0-.2-.1-.3-.2-.4s-.3-.2-.4-.2c-1.3 0-2.6-.4-3.7-1.1s-2-1.8-2.5-3-.7-2.6-.4-3.9.9-2.5 1.8-3.4 2.1-1.6 3.4-1.8 2.7-.1 3.9.4 2.3 1.4 3 2.5 1.1 2.4 1.1 3.7v2.1c0 .4-.2.8-.4 1.1-.3.3-.7.4-1.1.4s-.8-.2-1.1-.4c-.3-.3-.4-.7-.4-1.1v-5.4c0-.2-.1-.3-.2-.4s-.3-.2-.4-.2c-.2 0-.3.1-.4.2s-.2.3-.2.4v.4l-.2-.2c-.6-.5-1.4-.8-2.2-.8-.6 0-1.2.1-1.7.4-.6.3-1.1.7-1.4 1.2-.4.5-.6 1.1-.7 1.7s0 1.2.2 1.8.6 1.1 1 1.5c.5.4 1 .7 1.6.8q.9.15 1.8 0c.6-.1 1.1-.4 1.6-.8l.1-.1.1.2c.2.6.6 1.2 1.1 1.5s1.2.5 1.8.4 1.2-.4 1.6-.9c.6-.6.8-1.2.8-1.8m-6.1-.3c-.5.5-1.1.7-1.8.7-.5 0-1-.1-1.4-.4-.5-.3-.8-.7-1-1.2s-.2-1-.1-1.5.3-.9.7-1.3.8-.6 1.3-.7 1 0 1.5.1c.5.2.9.5 1.1.9.3.4.4.9.4 1.4 0 .8-.3 1.5-.7 2"/></svg>
